X: 43103
T: Windmill, The
R: reel
M: 4/4
K: Dmajor
|:d2 fd ceAc|dBGB AFDE|FB (3BBB Adfd|eAce afge|
d2 fd ceAc|dBGB AFDF|GFGA Bdfa|1 gece d2 (3ABc:|2 gece defg||
|:eA (3AAA a3 f|gA (3AAA dFAd|(3BBB AB G3 F|EB,EF GABc|
dA (3AAA eAaA|fddc dfed|cdef gfga|1 gece defg:|2 gece d2 (3ABc||

